src/assets/flags/bv.svg

<?xml version="1.0" encoding="UTF-8"?>
<svg xmlns="http://www.w3.org/2000/svg" xmlns:xlink="http://www.w3.org/1999/xlink" width="25px" height="px" viewBox="0 0 25 19" version="1.1">
<g id="surface1">
<rect x="0" y="0" width="25" height="19" style="fill:rgb(100%,100%,100%);fill-opacity:1;stroke:none;"/>
<path style=" stroke:none;fill-rule:evenodd;fill:rgb(84.313726%,15.686275%,15.686275%);fill-opacity:1;" d="M -2.070312 -3.078125 L 6.472656 -3.078125 L 6.472656 7.851562 L -2.070312 7.851562 Z M 11.304688 -0.0234375 L 26.1875 -0.0234375 L 26.1875 7.851562 L 11.304688 7.851562 Z M -1.078125 12.667969 L 6.359375 12.667969 L 6.359375 20.199219 L -1.078125 20.199219 Z M 11.40625 12.75 L 26.183594 12.75 L 26.183594 20.199219 L 11.40625 20.199219 Z M 11.40625 12.75 "/>
<path style=" stroke:none;fill-rule:evenodd;fill:rgb(0%,21.960784%,59.215689%);fill-opacity:1;" d="M 7.683594 -1.003906 L 10.195312 -1.003906 L 10.195312 20.199219 L 7.675781 20.199219 Z M 7.683594 -1.003906 "/>
<path style=" stroke:none;fill-rule:evenodd;fill:rgb(0%,21.960784%,59.215689%);fill-opacity:1;" d="M -1.078125 8.898438 L 26.1875 8.898438 L 26.1875 11.410156 L -1.078125 11.410156 Z M -1.078125 8.898438 "/>
</g>
</svg>

<svg xmlns="http://www.w3.org/2000/svg" width="25" height="px" viewBox="0 0 25 19"><path d="M0 0h25v19H0z" style="fill:#fff;fill-opacity:1;stroke:none"/><path d="M-2.07-3.078h8.543v10.93H-2.07ZM11.305-.023h14.883v7.875H11.305ZM-1.078 12.668h7.437v7.531h-7.437Zm12.484.082h14.778v7.45H11.406Zm0 0" style="stroke:none;fill-rule:evenodd;fill:#d72828;fill-opacity:1"/><path d="M7.684-1.004h2.511V20.2h-2.52Zm0 0" style="stroke:none;fill-rule:evenodd;fill:#003897;fill-opacity:1"/><path d="M-1.078 8.898h27.266v2.512H-1.078Zm0 0" style="stroke:none;fill-rule:evenodd;fill:#003897;fill-opacity:1"/></svg>
